X:1
T:Ritournelles de Belleville
C:Richard Lewis
Z:Dave Holland <dave@biff.org.uk> from a PDF from Mike Gilpin
M:3/4
L:1/4
K:D
DFA|df/z/d|c3|B3|\
A^GA|BA^G|=G3-|G3|
GFG|A2B/c/|B3-|B3|\
GFG|A2B/c/|B3-B3|
DFA|df/z/d|c3|B3|\
A^GA|BA^A|B3-|B3|
B^AB|dcB|A^GA|BAF|\
EFG|ABc|d3-|d3:|
L:1/8
K:Dm
A^G AB AG|AB =Bc ^cd|_ed ^c=c =B_B|A6|
A^G AB AG|AB =Bc ^cd|e6-|e6|
ef gf ef|gf ef gf|ef gf ef|e6|
ef gf ed|^cd ed cd|^c6-c6|
A^G AB AG|AB =Bc ^cd|_ed ^c=c =B_B|A6|
A^G AB AG|AB =Bc ^cd|e6-|e6|
d^c de fe|d^c de fe|d^c de fe|d6|
ba _ag ^f=f|e_e d^c =c^c|d6|d2 z2 z2|]
